X:37
T:Dulce Domum
N:page 23 on manuscript
M:C
L:1/8
K:C
c2 z G d2 z G | e3 f g2 e2 | a4 de/f/ e2 c2 | d2 B2 c2 z2 | e3 f g2 {f}e2 | a2 (de/f/) {f}e2 {d}c2 | e2 ^f2 g2 a2 | g2 ^f2 g4 |
g2 d>e f>g e2 | (dA)(dc) {c}B2 {A}G2 | g3 e a2 (de/f/) | e2 Td>c c2 z2 | e3 f g2 c2 | f3 e d2 d2 | a3 g ^f2 g2 |
g2 T^f2 g2 z2 | g3 e a3 g | =fedc {c}B2 {A}G2 | g2 e2 a2 (de/f/) | e2 Td>c c2 z2 |]

